X:1
T:The Laird O Logie
M:3/4
L:1/8
K:G
 F3/2- E/2| D3/2 F/2 A2 Bd| B3/2 A/2 G3 B| A3/2 F/2 D2E-F| A3/2 F/2 E2 zA/2-G/2|\
 F3/2 E/2 D2E-F| A3/2 B/2 d3 A| BdB-AF-D| E3/2 D/2 D2 z A| Bd B2A-F|\
 A3/2 B/2 d3 A| Bd B2A-F| A3/2 F/2 E3 A| Bdd BA F| A3/2 B/2 d3 A| BdB-AF-D|\
 E3/2 D/2 D2 z||
